X: 25
T:MacDonald's Jig
% Nottingham Music Database
S:Mick Peat
M:6/8
K:A
"A"e2e "E"dcB|"A"cAG "D"Adf|"A"e2e "D"dfd|"A"ecA "G"=GBd|
"A"e2e "E"dcB|"A"cAG "D"Adf|"A"eac "Bm"Bcd|"E"efg "A"a3:|
"E"BcB Bed|"A"cBA "E"BGE|"D"FGA "A"agf|"Bm"ecA "E"B3|
"A"c2e "D"agf|"A"cAG "D"Adf|"A"eac "Bm"Bcd|"E"efg "A"a3|


